X:1
T:Title
%%score { ( 1 4 5 ) | ( 2 3 6 ) }
L:1/8
Q:1/4=110
M:4/4
K:G
V:1 treble nm="Grand Piano"
V:4 treble 
V:5 treble 
V:2 treble 
V:3 treble 
V:6 treble 
V:1
 d4 B3 G | G4 [Ed]2 [Ec]2 | [DB]3 [DG] [FB]>[FA] G>F | G4 D2 z2 | [Ge]4 [Gc]3 [EA] | %5
w: Richard~Wagner * *|||||
 [EA]4 [Fe]2 [Fd]2 | [GB]3 [DG] [=Fd]>[Ec] [CE]>[CEA] | [B,G]4 F2 z2 | B4 G3 D | z _B, z ^C z FGB | %10
w: |||||
 d4 B3 G | z ^CDF z _B=Bd | e4 c3 A | e2 d2 c2 B2 | [=Fd]2 [Ec]2 [DB]2 [C^FA]2 | %15
w: |||||
 [B,G]2 [G,B,D]2 [G,B,D]2 [G,B,D]2 | [G,B,D]2 [B,D]2 [G,B,D]2 [G,B,D]2 | %17
w: ||
 [B,DG]2 [DG]2 [B,DG]2 [B,DG]2 | [GB]2 B2 [GB]2 [GB]2 | [FAc]2 [Ac]2 [EAc]2 [Ac]2 | %20
w: |||
 E4 z2[K:treble] F2 | A4 A2 A2 | e3 ^d =d^c=cA | z2 DG B2 d>d | d2 B>B B2 G2 | [Fe]4 [Fd]3 [Fd] | %26
w: ||||||
 [DG]6 z2 |] %27
w: |
V:2
 [G,B,G]4 [G,DG]3[K:bass] [G,B,D] | [G,B,D]4 [C,A,]2 [C,A,]2 | %2
 [D,G,]3 [D,B,] [D,D]>[D,C] [D,B,D]>[D,CD] | D4 z4 | [C,C]4 [E,C]3 [A,C] | [A,C]4 [D,C]2 [D,D]2 | %6
 [G,D]3 [G,B,] [C,^G,]>[C,A,] C,>C, | z4 A,2 z2 | [G,D]4 [G,B,D]3 [G,B,] | G,6 z2 | %10
 [G,B,G]4 [G,DG]3[K:bass] [G,B,D] | B,-[^C,B,-][D,B,-][F,B,-] B,-[_B,B,]=B,[K:treble]D | %12
 [CG]4 [A,CE]3 [A,CE] | [A,CF]2 [B,G]2[K:bass] [F,A,D]2 [G,D]2 | [C,^G,]2 [C,A,]2 [D,G,]2 D,2 | %15
 G,2 G,,2 G,,2 G,,2 | z2 G,2 ^C,>D, E,>F, | z2 B,2 G,>F, G,>B, | z2 G2 z4[K:bass] | z2 F2 z2 E2 | %20
 A,,2 A,,2 z z/ E/ [A,,E,A,]2 | [A,,E,A,]2 [A,,E,A,]2 [A,,E,A,]2 [A,,E,A,]2 | %22
 [D,A,C]2 [D,A,C]2 [D,A,C]2 [D,A,C]2 | [G,D]-[B,,G,-D] [D,G,]2 B,2[K:treble] [G,B,G]>[G,B,G] | %24
 [G,B,G]2 [G,DG]>[G,DG] [G,DG]2[K:bass] [G,B,D]2 | [D,C]4 [D,C]3 [D,C] | [G,B,]6 z2 |] %27
V:3
 x7[K:bass] x | x8 | x8 | [G,B,]6 z2 | x8 | x8 | x8 | D,6 z2 | x8 | B,-[_B,,B,]=B,,^C, D,F,G,B, | %10
 x7[K:bass] x | G,4 G,2 z2[K:treble] | x8 | x4[K:bass] x4 | x8 | x8 | D,4 z4 | G,4 z4 | %18
 C4 z4[K:bass] | F,4 E,4 | z4 A,,2 z2 | x8 | x8 | .B,2 z G,- G,2[K:treble] z2 | x6[K:bass] x2 | %25
 x8 | x8 |] %27
V:4
 x8 | x8 | x8 | x8 | x8 | x8 | x8 | C6 z2 | x8 | D4 D2 z2 | x8 | G4 G2 z2 | x8 | x8 | x8 | x8 | %16
 x8 | x8 | x8 | x8 | [E,A,C]2 [E,A,C]2 [E,A,C^D]2[K:treble] C->[C^G] | %21
 [CE]2 [CE]2 [CE]->[CE^G] [CE]->[CEc] | F2 F2 F2 F2 | G2 z2 z4 | x8 | x8 | x8 |] %27
V:5
 x8 | x8 | x8 | x8 | x8 | x8 | x8 | x8 | x8 | z2 =B,4 z2 | x8 | x8 | x8 | x8 | x8 | x8 | x8 | x8 | %18
 x8 | x8 | x6[K:treble] x2 | x8 | x8 | z B,3 z4 | x8 | x8 | x8 |] %27
V:6
 x7[K:bass] x | x8 | x8 | x8 | x8 | x8 | x8 | x8 | x8 | x8 | x7[K:bass] x | x7[K:treble] x | x8 | %13
 x4[K:bass] x4 | x8 | x8 | x8 | x8 | z2 z D C>B,[K:bass] A,>G, | x8 | x8 | x8 | x8 | %23
 x6[K:treble] x2 | x6[K:bass] x2 | x8 | x8 |] %27

